z-union/img/icons/tab-icons/tab-icon-6.svg

<svg width="58" height="57" viewBox="0 0 58 57" fill="none" xmlns="http://www.w3.org/2000/svg">
<path d="M53.1626 27.5166H4.81689V29.8674H53.1626V27.5166Z" fill="#232322"/>
<path d="M30.1647 5.56055H27.814V51.8217H30.1647V5.56055Z" fill="#232322"/>
<path d="M53.1626 4.38379H4.81689V6.73454H53.1626V4.38379Z" fill="#232322"/>
<path d="M53.1626 51.1797H4.81689V53.5304H53.1626V51.1797Z" fill="#232322"/>
<path d="M54.3598 51.822H52.009V8.31081L29.8321 29.5342C29.3664 29.9777 28.6567 29.9777 28.2132 29.5342L6.03622 8.31081V51.822H3.64111V5.56089C3.64111 5.09518 3.92941 4.6738 4.35078 4.47421C4.77214 4.29679 5.28221 4.38551 5.61486 4.69599L28.9894 27.0725L52.3639 4.71816C52.6965 4.3855 53.2066 4.29681 53.6279 4.49641C54.0715 4.67382 54.3376 5.11734 54.3376 5.58306V51.822H54.3598Z" fill="#4B66AB"/>
<path d="M4.81671 9.19689C6.82538 9.19689 8.45372 7.56854 8.45372 5.55987C8.45372 3.5512 6.82538 1.92285 4.81671 1.92285C2.80804 1.92285 1.17969 3.5512 1.17969 5.55987C1.17969 7.56854 2.80804 9.19689 4.81671 9.19689Z" fill="#151514"/>
<path d="M4.81689 10.3732C4.75036 10.3732 4.706 10.3732 4.63947 10.3732C3.35321 10.3288 2.15566 9.77437 1.29076 8.84294C0.403678 7.91151 -0.0398607 6.6696 0.00449315 5.38334C0.0932009 2.72211 2.35525 0.637483 4.9943 0.748367C7.65554 0.837075 9.74017 3.07695 9.62929 5.73818C9.58493 7.02444 9.03051 8.22198 8.09908 9.08688C7.212 9.92961 6.0588 10.3732 4.81689 10.3732ZM4.81689 3.09912C3.50845 3.09912 2.3996 4.14142 2.35525 5.47203C2.33307 6.13734 2.55484 6.7583 3.02056 7.24619C3.4641 7.73409 4.08505 8.00022 4.72818 8.0224C5.41567 8.04458 6.01444 7.8228 6.50234 7.35709C6.99023 6.89137 7.25635 6.29258 7.27853 5.64945C7.32288 4.29666 6.25839 3.14347 4.9056 3.09912C4.88342 3.09912 4.86124 3.09912 4.81689 3.09912Z" fill="#4B66AB"/>
<path d="M4.81671 55.4576C6.82538 55.4576 8.45372 53.8293 8.45372 51.8206C8.45372 49.8119 6.82538 48.1836 4.81671 48.1836C2.80804 48.1836 1.17969 49.8119 1.17969 51.8206C1.17969 53.8293 2.80804 55.4576 4.81671 55.4576Z" fill="#151514"/>
<path d="M4.8164 56.6334C4.74987 56.6334 4.70552 56.6334 4.63899 56.6334C3.35272 56.589 2.15517 56.0346 1.29027 55.1032C0.40319 54.1496 -0.040349 52.9299 0.00400487 51.6436C0.0927126 48.9824 2.37694 46.9199 4.99382 47.0086C6.28008 47.053 7.47763 47.6074 8.34253 48.5388C9.22961 49.4924 9.67315 50.7122 9.6288 51.9984C9.58444 53.2847 9.03002 54.4822 8.09859 55.3471C7.21151 56.1899 6.03613 56.6334 4.8164 56.6334ZM4.8164 49.3594C3.48578 49.3594 2.39911 50.4017 2.35476 51.7323C2.31041 53.0851 3.3749 54.2383 4.72769 54.2827C5.41518 54.327 6.01396 54.0831 6.50185 53.6173C6.98974 53.1738 7.25586 52.5528 7.27804 51.9097C7.30022 51.2666 7.07845 50.6234 6.61273 50.1355C6.16919 49.6476 5.54824 49.3815 4.90511 49.3594C4.88293 49.3594 4.86075 49.3594 4.8164 49.3594Z" fill="#4B66AB"/>
<path d="M53.1844 9.19689C55.1931 9.19689 56.8214 7.56854 56.8214 5.55987C56.8214 3.5512 55.1931 1.92285 53.1844 1.92285C51.1757 1.92285 49.5474 3.5512 49.5474 5.55987C49.5474 7.56854 51.1757 9.19689 53.1844 9.19689Z" fill="#151514"/>
<path d="M53.1846 10.3732C53.118 10.3732 53.0737 10.3732 53.0071 10.3732C51.7209 10.3288 50.5233 9.77437 49.6584 8.84294C48.7714 7.91151 48.3278 6.6696 48.3722 5.38334C48.4609 2.72211 50.7451 0.637483 53.362 0.748367C54.6482 0.792721 55.8458 1.34715 56.7107 2.27858C57.5978 3.23219 58.0413 4.45192 57.997 5.73818C57.8861 8.33288 55.7571 10.3732 53.1846 10.3732ZM53.1846 3.09912C51.8761 3.09912 50.7673 4.14142 50.7229 5.47203C50.7008 6.13734 50.9225 6.7583 51.3882 7.24619C51.8318 7.73409 52.4527 8.00022 53.0959 8.0224C54.4487 8.06675 55.6019 7.00225 55.6462 5.64945C55.6906 4.29666 54.6261 3.14347 53.2733 3.09912C53.2289 3.09912 53.2067 3.09912 53.1846 3.09912Z" fill="#4B66AB"/>
<path d="M53.1844 32.4527C55.1931 32.4527 56.8214 30.8244 56.8214 28.8157C56.8214 26.8071 55.1931 25.1787 53.1844 25.1787C51.1757 25.1787 49.5474 26.8071 49.5474 28.8157C49.5474 30.8244 51.1757 32.4527 53.1844 32.4527Z" fill="#151514"/>
<path d="M53.1846 33.6271C53.118 33.6271 53.0737 33.6271 53.0071 33.6271C51.7209 33.5827 50.5233 33.0283 49.6584 32.0968C48.7714 31.1654 48.3278 29.9235 48.3722 28.6372C48.4609 25.976 50.7451 23.8914 53.362 24.0023C54.6482 24.0466 55.8458 24.6011 56.7107 25.5325C57.5978 26.4861 58.0413 27.7058 57.997 28.9921C57.8861 31.5868 55.7571 33.6271 53.1846 33.6271ZM53.1846 26.353C51.8761 26.353 50.7673 27.3953 50.7229 28.7259C50.7008 29.3912 50.9225 30.0122 51.3882 30.5001C51.8318 30.988 52.4527 31.2541 53.0959 31.2763C54.4487 31.3207 55.6019 30.2562 55.6462 28.9034C55.6906 27.5506 54.6261 26.3974 53.2733 26.353C53.2289 26.353 53.2067 26.353 53.1846 26.353Z" fill="#4B66AB"/>
<path d="M4.81573 32.4527C6.8244 32.4527 8.45275 30.8244 8.45275 28.8157C8.45275 26.8071 6.8244 25.1787 4.81573 25.1787C2.80706 25.1787 1.17871 26.8071 1.17871 28.8157C1.17871 30.8244 2.80706 32.4527 4.81573 32.4527Z" fill="#151514"/>
<path d="M4.81542 33.6271C4.74889 33.6271 4.70454 33.6271 4.63801 33.6271C3.35175 33.5827 2.15419 33.0283 1.28929 32.0968C0.402213 31.1654 -0.0413256 29.9235 0.00302831 28.6372C0.0917361 25.976 2.37596 23.8914 4.99284 24.0023C6.2791 24.0466 7.47666 24.6011 8.34156 25.5325C9.22864 26.4861 9.67218 27.7058 9.62782 28.9921C9.51694 31.5868 7.38795 33.6271 4.81542 33.6271ZM4.81542 26.353C3.50698 26.353 2.39814 27.3953 2.35379 28.7259C2.33161 29.3912 2.55338 30.0122 3.01909 30.5001C3.46263 30.988 4.08359 31.2541 4.72672 31.2763C6.07951 31.3207 7.23271 30.2562 7.27707 28.9034C7.32142 27.5506 6.25693 26.3974 4.90413 26.353C4.85978 26.353 4.8376 26.353 4.81542 26.353Z" fill="#4B66AB"/>
<path d="M28.9896 32.3287C30.9982 32.3287 32.6266 30.7004 32.6266 28.6917C32.6266 26.683 30.9982 25.0547 28.9896 25.0547C26.9809 25.0547 25.3525 26.683 25.3525 28.6917C25.3525 30.7004 26.9809 32.3287 28.9896 32.3287Z" fill="#151514"/>
<path d="M29.0117 33.5048C28.9452 33.5048 28.9008 33.5048 28.8343 33.5048C27.548 33.4604 26.3505 32.906 25.4856 31.9746C24.5985 31.021 24.155 29.8012 24.1993 28.515C24.2437 27.2287 24.7981 26.0311 25.7295 25.1662C26.6831 24.2792 27.925 23.8356 29.1891 23.88C31.8504 23.9687 33.935 26.2086 33.8241 28.8698C33.7798 30.1561 33.2253 31.3536 32.2939 32.2185C31.3846 33.0613 30.2314 33.5048 29.0117 33.5048ZM28.9895 26.2307C27.6811 26.2307 26.5723 27.2731 26.5279 28.6037C26.5057 29.269 26.7275 29.89 27.1932 30.3778C27.6367 30.8657 28.2577 31.1318 28.9008 31.154C29.544 31.1762 30.1871 30.9544 30.675 30.4887C31.1629 30.0452 31.429 29.4242 31.4512 28.7811C31.4955 27.4283 30.431 26.2751 29.0782 26.2307C29.0561 26.2307 29.0339 26.2307 28.9895 26.2307Z" fill="#4B66AB"/>
<path d="M53.1844 55.4576C55.1931 55.4576 56.8214 53.8293 56.8214 51.8206C56.8214 49.8119 55.1931 48.1836 53.1844 48.1836C51.1757 48.1836 49.5474 49.8119 49.5474 51.8206C49.5474 53.8293 51.1757 55.4576 53.1844 55.4576Z" fill="#151514"/>
<path d="M53.1848 56.6337C53.1183 56.6337 53.0739 56.6337 53.0074 56.6337C50.3461 56.545 48.2615 54.3051 48.3724 51.6439C48.4167 50.3576 48.9712 49.1601 49.9026 48.2952C50.8562 47.4081 52.0981 46.9645 53.3622 47.0089C54.6485 47.0532 55.846 47.6076 56.7109 48.5391C57.598 49.4927 58.0415 50.7124 57.9972 51.9987C57.8863 54.5934 55.7573 56.6337 53.1848 56.6337ZM53.1626 49.3596C52.5417 49.3596 51.9429 49.5814 51.4772 50.025C50.9893 50.4685 50.7231 51.0894 50.701 51.7326C50.6566 53.0853 51.7211 54.2386 53.0739 54.2829C54.4711 54.3273 55.5799 53.2628 55.6243 51.91C55.6464 51.2447 55.4247 50.6237 54.9589 50.1358C54.5154 49.6479 53.8945 49.3818 53.2513 49.3596C53.2291 49.3596 53.207 49.3596 53.1626 49.3596Z" fill="#4B66AB"/>
</svg>

<svg width="58" height="57" fill="none" xmlns="http://www.w3.org/2000/svg"><path d="M53.163 27.517H4.817v2.35h48.346v-2.35z" fill="#232322"/><path d="M30.165 5.56h-2.351v46.262h2.35V5.56z" fill="#232322"/><path d="M53.163 4.384H4.817v2.35h48.346v-2.35zm0 46.796H4.817v2.35h48.346v-2.35z" fill="#232322"/><path d="M54.36 51.822h-2.351V8.311L29.832 29.534c-.466.444-1.175.444-1.619 0L6.036 8.311v43.511H3.641V5.561c0-.466.288-.887.71-1.087a1.2 1.2 0 011.264.222l23.374 22.377L52.364 4.718a1.119 1.119 0 011.264-.222c.444.178.71.621.71 1.087v46.239h.022z" fill="#4B66AB"/><path d="M4.817 9.197a3.637 3.637 0 100-7.274 3.637 3.637 0 000 7.274z" fill="#151514"/><path d="M4.817 10.373h-.178a4.786 4.786 0 01-3.348-1.53C.404 7.912-.04 6.67.004 5.383.094 2.723 2.355.637 4.994.748a4.797 4.797 0 014.635 4.99A4.786 4.786 0 018.1 9.087c-.887.843-2.04 1.286-3.282 1.286zm0-7.274a2.467 2.467 0 00-2.462 2.373c-.022.665.2 1.286.666 1.774a2.41 2.41 0 001.707.776c.688.023 1.286-.2 1.774-.665A2.45 2.45 0 007.28 5.65c.044-1.352-1.02-2.506-2.373-2.55h-.09z" fill="#4B66AB"/><path d="M4.817 55.458a3.637 3.637 0 100-7.274 3.637 3.637 0 000 7.274z" fill="#151514"/><path d="M4.816 56.633H4.64a4.786 4.786 0 01-3.349-1.53 4.777 4.777 0 01-1.286-3.46c.089-2.66 2.373-4.723 4.99-4.634a4.786 4.786 0 013.349 1.53 4.777 4.777 0 011.286 3.46 4.786 4.786 0 01-1.53 3.348 4.742 4.742 0 01-3.283 1.286zm0-7.274a2.453 2.453 0 00-2.461 2.373c-.045 1.353 1.02 2.506 2.373 2.55.687.045 1.286-.199 1.774-.665a2.41 2.41 0 00.776-1.707 2.436 2.436 0 00-.665-1.774 2.41 2.41 0 00-1.708-.777h-.089z" fill="#4B66AB"/><path d="M53.184 9.197a3.637 3.637 0 100-7.274 3.637 3.637 0 000 7.274z" fill="#151514"/><path d="M53.185 10.373h-.178a4.786 4.786 0 01-3.349-1.53c-.887-.931-1.33-2.173-1.286-3.46.089-2.66 2.373-4.746 4.99-4.635a4.786 4.786 0 013.349 1.53 4.777 4.777 0 011.286 3.46c-.11 2.595-2.24 4.635-4.812 4.635zm0-7.274a2.467 2.467 0 00-2.462 2.373c-.022.665.2 1.286.665 1.774a2.41 2.41 0 001.708.776c1.353.045 2.506-1.02 2.55-2.373.045-1.352-1.02-2.506-2.373-2.55h-.088z" fill="#4B66AB"/><path d="M53.184 32.453a3.637 3.637 0 100-7.274 3.637 3.637 0 000 7.274z" fill="#151514"/><path d="M53.185 33.627h-.178a4.786 4.786 0 01-3.349-1.53c-.887-.932-1.33-2.174-1.286-3.46.089-2.661 2.373-4.746 4.99-4.635a4.786 4.786 0 013.349 1.53 4.777 4.777 0 011.286 3.46c-.11 2.595-2.24 4.635-4.812 4.635zm0-7.274a2.467 2.467 0 00-2.462 2.373c-.022.665.2 1.286.665 1.774a2.41 2.41 0 001.708.776c1.353.045 2.506-1.02 2.55-2.373.045-1.352-1.02-2.506-2.373-2.55h-.088z" fill="#4B66AB"/><path d="M4.816 32.453a3.637 3.637 0 100-7.274 3.637 3.637 0 000 7.274z" fill="#151514"/><path d="M4.815 33.627h-.177a4.786 4.786 0 01-3.349-1.53c-.887-.932-1.33-2.174-1.286-3.46.089-2.661 2.373-4.746 4.99-4.635a4.785 4.785 0 013.349 1.53 4.777 4.777 0 011.286 3.46c-.111 2.595-2.24 4.635-4.813 4.635zm0-7.274a2.467 2.467 0 00-2.461 2.373c-.022.665.2 1.286.665 1.774a2.41 2.41 0 001.708.776c1.353.045 2.506-1.02 2.55-2.373.044-1.352-1.02-2.506-2.373-2.55h-.089z" fill="#4B66AB"/><path d="M28.99 32.329a3.637 3.637 0 100-7.274 3.637 3.637 0 000 7.274z" fill="#151514"/><path d="M29.012 33.505h-.178a4.786 4.786 0 01-3.348-1.53 4.777 4.777 0 01-1.287-3.46 4.812 4.812 0 014.99-4.635 4.797 4.797 0 014.635 4.99 4.785 4.785 0 01-1.53 3.348 4.782 4.782 0 01-3.282 1.287zm-.023-7.274a2.467 2.467 0 00-2.461 2.373c-.022.665.2 1.286.665 1.774a2.41 2.41 0 001.708.776 2.44 2.44 0 001.774-.665 2.41 2.41 0 00.776-1.708c.044-1.353-1.02-2.506-2.373-2.55h-.088z" fill="#4B66AB"/><path d="M53.184 55.458a3.637 3.637 0 100-7.274 3.637 3.637 0 000 7.274z" fill="#151514"/><path d="M53.185 56.634h-.178a4.797 4.797 0 01-4.635-4.99 4.811 4.811 0 014.99-4.635 4.785 4.785 0 013.349 1.53A4.777 4.777 0 0157.997 52c-.11 2.594-2.24 4.635-4.812 4.635zm-.022-7.274c-.621 0-1.22.221-1.686.665a2.41 2.41 0 00-.776 1.708c-.044 1.352 1.02 2.506 2.373 2.55a2.445 2.445 0 002.55-2.373 2.403 2.403 0 00-.665-1.774 2.41 2.41 0 00-1.708-.776h-.088z" fill="#4B66AB"/></svg>
